svg/OSM-icons/emergency #fe0000 °ffffff !label=enemergency,deNotfälle/17004;emergency=ambulance_service;!label=enambulance,deAmbulanz.svg

<svg xmlns="http://www.w3.org/2000/svg" viewBox="0 0 580 580" enable-background="new 0 0 580 580"><path fill="#111" stroke="#eee" stroke-width="3.408" d="m66.28 1.768c-41.34 0-64.57 21.371-64.57 65.04v450.12c0 40.844 20.894 62.23 62.19 62.23h452.02c41.31 0 62.23-20.316 62.23-62.23v-450.12c0-42.601-20.923-65.04-63.52-65.04-.003 0-448.49-.143-448.35 0z"/><path fill="#fff" d="m467.75 288.54c0 0-56.882-235.44-84.27-235.44h-50.33-85.72-50.941c-27.39 0-84.23 235.44-84.23 235.44-14.11 1.812-39.14 18.38-39.14 49.766v116.92h34.657v37.39c0 46 65.1 45.46 65.1 0v-37.39h117.11.035 117.11v37.39c0 45.46 65.1 46 65.1 0v-37.39h34.658v-116.92c0-31.386-25.02-47.954-39.14-49.766m-225.41-189.59h32.97v-32.97h29.387v32.97h32.97v29.386h-32.97v32.97h-29.387v-32.97h-32.97v-29.386m-100.97 285.82c-16.608 0-30.07-13.895-30.07-31.01s13.458-30.977 30.07-30.977c16.607 0 30.06 13.857 30.06 30.977-.003 17.12-13.457 31.01-30.06 31.01m148.65-97.18h-.035-.078-140.8l26.838-97.9c3.354-10.163 8.382-17.503 20.12-17.614h93.84.078.035 93.88c11.738.11 16.764 7.451 20.12 17.614l26.838 97.9h-140.83m148.62 97.18c-16.607 0-30.11-13.895-30.11-31.01s13.498-30.977 30.11-30.977c16.608 0 30.06 13.857 30.06 30.977s-13.455 31.01-30.06 31.01"/></svg>

<?xml version="1.0" encoding="utf-8"?>
<!-- Generator: Adobe Illustrator 15.0.0, SVG Export Plug-In . SVG Version: 6.00 Build 0)  -->
<!DOCTYPE svg PUBLIC "-//W3C//DTD SVG 1.1//EN" "http://www.w3.org/Graphics/SVG/1.1/DTD/svg11.dtd">
<svg version="1.1" xmlns="http://www.w3.org/2000/svg" xmlns:xlink="http://www.w3.org/1999/xlink" x="0px" y="0px" width="580px"
	 height="580px" viewBox="0 0 580 580" enable-background="new 0 0 580 580" xml:space="preserve">
<g id="Layer_2">
	<g id="g1327">
		<path id="path1329" fill="#111111" stroke="#EEEEEE" stroke-width="3.408" d="M66.275,1.768
			c-41.335,0-64.571,21.371-64.571,65.036v450.123c0,40.844,20.894,62.229,62.192,62.229H515.92
			c41.307,0,62.229-20.316,62.229-62.229V66.804c0-42.601-20.923-65.036-63.522-65.036C514.624,1.768,66.133,1.625,66.275,1.768z"/>
	</g>
</g>
<g id="svg2" xmlns:inkscape="http://www.inkscape.org/namespaces/inkscape" xmlns:rdf="http://www.w3.org/1999/02/22-rdf-syntax-ns#" xmlns:svg="http://www.w3.org/2000/svg" xmlns:sodipodi="http://sodipodi.sourceforge.net/DTD/sodipodi-0.dtd" xmlns:cc="http://creativecommons.org/ns#" xmlns:dc="http://purl.org/dc/elements/1.1/" inkscape:output_extension="org.inkscape.output.svg.inkscape" inkscape:version="0.46" sodipodi:docname="waste_bin.svg" sodipodi:version="0.32">
	<path fill="#FFFFFF" d="M467.75,288.535c0,0-56.882-235.444-84.274-235.444h-50.332h-85.717h-50.941
		c-27.39,0-84.235,235.444-84.235,235.444c-14.114,1.812-39.136,18.38-39.136,49.766V455.22h34.657v37.391
		c0,46.003,65.104,45.46,65.104,0V455.22h117.107h0.035h117.107v37.391c0,45.46,65.103,46.003,65.103,0V455.22h34.658V338.301
		C506.886,306.915,481.864,290.347,467.75,288.535z M242.335,98.942h32.97v-32.97h29.387v32.97h32.97v29.386h-32.97v32.97h-29.387
		v-32.97h-32.97V98.942z M141.367,384.765c-16.608,0-30.066-13.895-30.066-31.014s13.458-30.977,30.066-30.977
		c16.607,0,30.065,13.857,30.065,30.977C171.429,370.87,157.975,384.765,141.367,384.765z M290.018,287.586h-0.035h-0.078H149.108
		l26.838-97.9c3.354-10.163,8.382-17.503,20.121-17.614h93.837h0.078h0.035h93.876c11.738,0.11,16.764,7.451,20.121,17.614
		l26.838,97.9H290.018z M438.633,384.765c-16.607,0-30.105-13.895-30.105-31.014s13.498-30.977,30.105-30.977
		c16.608,0,30.063,13.857,30.063,30.977S455.241,384.765,438.633,384.765z"/>
</g>
</svg>
